packages/IcoMoon/src/BinocularsIcon/index.svg

<svg version="1.1" xmlns="http://www.w3.org/2000/svg" width="16" height="16" viewBox="0 0 16 16">
<path d="M1 0h6v1h-6zM9 0h6v1h-6zM14.875 5h-0.875v-4h-4v4h-4v-4h-4v4h-0.875c-0.619 0-1.125 0.506-1.125 1.125v8.75c0 0.619 0.506 1.125 1.125 1.125h4.75c0.619 0 1.125-0.506 1.125-1.125v-5.875h2v5.875c0 0.619 0.506 1.125 1.125 1.125h4.75c0.619 0 1.125-0.506 1.125-1.125v-8.75c0-0.619-0.506-1.125-1.125-1.125zM5.438 15h-3.875c-0.309 0-0.563-0.225-0.563-0.5s0.253-0.5 0.563-0.5h3.875c0.309 0 0.563 0.225 0.563 0.5s-0.253 0.5-0.563 0.5zM8.5 8h-1c-0.275 0-0.5-0.225-0.5-0.5s0.225-0.5 0.5-0.5h1c0.275 0 0.5 0.225 0.5 0.5s-0.225 0.5-0.5 0.5zM14.438 15h-3.875c-0.309 0-0.563-0.225-0.563-0.5s0.253-0.5 0.563-0.5h3.875c0.309 0 0.563 0.225 0.563 0.5s-0.253 0.5-0.563 0.5z"></path>
</svg>

<svg xmlns="http://www.w3.org/2000/svg" viewBox="0 0 16 16">
  <path d="M1 0h6v1H1zm8 0h6v1H9zm5.875 5H14V1h-4v4H6V1H2v4h-.875C.506 5 0 5.506 0 6.125v8.75C0 15.494.506 16 1.125 16h4.75C6.494 16 7 15.494 7 14.875V9h2v5.875C9 15.494 9.506 16 10.125 16h4.75c.619 0 1.125-.506 1.125-1.125v-8.75C16 5.506 15.494 5 14.875 5zM5.438 15H1.563C1.254 15 1 14.775 1 14.5s.253-.5.563-.5h3.875c.309 0 .563.225.563.5s-.253.5-.563.5zM8.5 8h-1c-.275 0-.5-.225-.5-.5s.225-.5.5-.5h1c.275 0 .5.225.5.5s-.225.5-.5.5zm5.938 7h-3.875c-.309 0-.563-.225-.563-.5s.253-.5.563-.5h3.875c.309 0 .563.225.563.5s-.253.5-.563.5z"/>
</svg>
